X: 17683
T: Holly Tree, The
R: reel
M: 4/4
K: Gmajor
d2ge dBGB|cdBc AGEG|D2B,D GABc|dg~g2 (3efg ag|
bg~g2 dBGB|cdBc AGEG|D2B,D G,B,DG|FGAc BGGB:|
|:dG (3Bcd GBdg|bg~g2 dBGB|c3A BcdB|(3cBA GB ABcd|
bg~g2 agef|~g3e dBGB|cege dB~B2|cAFA G3B:|

